X:1
T:Lottie's
C:Jon Swayne
M:4/4
L:1/8
K:G
e2e2de fd|ef ed B4|g2e2efga|bgeg f2d2|
e2a2bgeg|fgaf d2ef|gecg edcB|A2A2A4:|
|:abaf efge|d2d2BcdB|c2c2GABG|ABcd efge|
abaf efge|d2d2cdef|gecg edcB|A2A2A4|]
